markets/TAO.svg

<svg width="43" height="42" viewBox="0 0 43 42" fill="none" xmlns="http://www.w3.org/2000/svg">
<circle cx="21.5" cy="21" r="21" fill="white"/>
<g clip-path="url(#clip0_9309_2869)">
<path d="M22.9907 25.8565V19.7526C22.9907 18.1941 21.7592 16.9604 20.2036 16.9604V26.7656C20.2036 28.1941 21.3055 29.363 22.7314 29.363C22.7962 29.363 22.7962 29.363 22.861 29.363C23.5092 29.4279 24.2221 29.2331 24.7407 28.7786C23.1203 28.6487 22.9907 27.6747 22.9907 25.8565Z" fill="#292929"/>
<path d="M17.0278 14.363C15.6667 14.363 14.5 15.5318 14.5 16.9604H25.9074C27.3333 16.9604 28.4352 15.7915 28.4352 14.363C28.5 14.363 17.0278 14.363 17.0278 14.363Z" fill="#292929"/>
</g>
<defs>
<clipPath id="clip0_9309_2869">
<rect width="14" height="15" fill="white" transform="translate(14.5 14.363)"/>
</clipPath>
</defs>
</svg>

<svg width="43" height="42" fill="none" viewBox="0 0 43 42" xmlns="http://www.w3.org/2000/svg">
  <circle cx="21.5" cy="21" r="21" fill="#fff"/>
  <g fill="#292929" clip-path="url(#a)">
    <path d="M22.99 25.857v-6.104a2.77 2.77 0 0 0-2.786-2.793v9.806c0 1.428 1.101 2.597 2.527 2.597h.13c.648.065 1.361-.13 1.88-.584-1.62-.13-1.75-1.104-1.75-2.922"/>
    <path d="M17.028 14.363c-1.361 0-2.528 1.169-2.528 2.597h11.407c1.426 0 2.528-1.169 2.528-2.597z"/>
  </g>
  <defs>
    <clipPath id="a">
      <path fill="#fff" d="M14.5 14.363h14v15h-14z"/>
    </clipPath>
  </defs>
</svg>
